static/assets/img/icons/theme/layout/layout-left-panel-2.svg

<svg height="24" viewBox="0 0 24 24" width="24" xmlns="http://www.w3.org/2000/svg"><g fill="none" fill-rule="evenodd"><path d="m0 0h24v24h-24z" opacity="0"/><g fill="#000"><path d="m10 4h11c.5522847 0 1 .44771525 1 1v2c0 .55228475-.4477153 1-1 1h-11c-.55228475 0-1-.44771525-1-1v-2c0-.55228475.44771525-1 1-1zm0 6h11c.5522847 0 1 .4477153 1 1v2c0 .5522847-.4477153 1-1 1h-11c-.55228475 0-1-.4477153-1-1v-2c0-.5522847.44771525-1 1-1zm0 6h11c.5522847 0 1 .4477153 1 1v2c0 .5522847-.4477153 1-1 1h-11c-.55228475 0-1-.4477153-1-1v-2c0-.5522847.44771525-1 1-1z"/><rect height="16" opacity=".3" rx="1" width="5" x="2" y="4"/></g></g></svg>

<svg width="24px" height="24px" viewBox="0 0 24 24" version="1.1" xmlns="http://www.w3.org/2000/svg" xmlns:xlink="http://www.w3.org/1999/xlink">
    <title>Icon For Layout-left-panel-2</title>
    <g stroke="none" stroke-width="1" fill="none" fill-rule="evenodd">
        <rect opacity="0" x="0" y="0" width="24" height="24"></rect>
        <path d="M10,4 L21,4 C21.5522847,4 22,4.44771525 22,5 L22,7 C22,7.55228475 21.5522847,8 21,8 L10,8 C9.44771525,8 9,7.55228475 9,7 L9,5 C9,4.44771525 9.44771525,4 10,4 Z M10,10 L21,10 C21.5522847,10 22,10.4477153 22,11 L22,13 C22,13.5522847 21.5522847,14 21,14 L10,14 C9.44771525,14 9,13.5522847 9,13 L9,11 C9,10.4477153 9.44771525,10 10,10 Z M10,16 L21,16 C21.5522847,16 22,16.4477153 22,17 L22,19 C22,19.5522847 21.5522847,20 21,20 L10,20 C9.44771525,20 9,19.5522847 9,19 L9,17 C9,16.4477153 9.44771525,16 10,16 Z" fill="#000000"></path>
        <rect fill="#000000" opacity="0.3" x="2" y="4" width="5" height="16" rx="1"></rect>
    </g>
</svg>
